;FLAVOR:Marlin
;TIME:3275
;Filament used: 0.838149m
;Layer height: 0.2
;MINX:91.5
;MINY:91.5
;MINZ:0.2
;MAXX:128.5
;MAXY:128.5
;MAXZ:20
;Generated with Cura_SteamEngine 4.8.0
M140 S50
M105
M190 S50
M104 S215
M105
M109 S215
M82 ;absolute extrusion mode
; Ender 3 Custom Start G-code
G92 E0 ; Reset Extruder
G28 ; Home all axes
G1 Z2.0 F3000 ; Move Z Axis up little to prevent scratching of Heat Bed
G1 X0.1 Y20 Z0.3 F5000.0 ; Move to start position
G1 X0.1 Y200.0 Z0.3 F1500.0 E15 ; Draw the first line
G1 X0.4 Y200.0 Z0.3 F5000.0 ; Move to side a little
G1 X0.4 Y20 Z0.3 F1500.0 E30 ; Draw the second line
G92 E0 ; Reset Extruder
G1 Z2.0 F3000 ; Move Z Axis up little to prevent scratching of Heat Bed
G1 X5 Y20 Z0.3 F5000.0 ; Move over to prevent blob squish
G92 E0
G92 E0
G1 F1500 E-6.5
;LAYER_COUNT:100
;LAYER:0
M107
G0 F6000 X95.469 Y95.454 Z0.2
;TYPE:SKIRT
G1 F1500 E0
G1 F1200 X96.124 Y94.852 E0.02959
G1 X96.314 Y94.691 E0.03787
G1 X96.542 Y94.502 E0.04772
G1 X96.734 Y94.348 E0.05591
G1 X97.49 Y93.793 E0.0871
G1 X98.236 Y93.335 E0.11622
G1 X98.425 Y93.229 E0.12342
G1 X98.789 Y93.034 E0.13716
G1 X99.029 Y92.911 E0.14613
G1 X99.881 Y92.519 E0.17732
G1 X100.654 Y92.236 E0.2047
G1 X100.836 Y92.177 E0.21106
G1 X101.172 Y92.074 E0.22275
G1 X101.459 Y91.991 E0.23269
G1 X102.37 Y91.769 E0.26388
G1 X103.17 Y91.64 E0.29083
G1 X103.373 Y91.615 E0.29763
G1 X103.832 Y91.569 E0.31297
G1 X103.931 Y91.561 E0.31628
G1 X104.587 Y91.527 E0.33812
G1 X105.783 Y91.502 E0.37791
G1 X106.013 Y91.5 E0.38556
G1 X106.784 Y91.5 E0.41121
G1 X108.771 Y91.527 E0.4773
G1 X111.381 Y91.527 E0.56411
G1 X112.585 Y91.502 E0.60416
G1 X112.813 Y91.5 E0.61175
G1 X114.441 Y91.501 E0.66589
G1 X114.963 Y91.508 E0.68326
G1 X115.68 Y91.541 E0.70713
G1 X116.365 Y91.595 E0.72998
G1 X117.296 Y91.709 E0.76118
G1 X118.481 Y91.972 E0.80155
G1 X118.648 Y92.019 E0.80732
G1 X119.011 Y92.128 E0.81993
G1 X119.29 Y92.217 E0.82967
G1 X120.171 Y92.54 E0.86088
G1 X120.942 Y92.896 E0.88912
G1 X121.15 Y93.002 E0.89689
G1 X121.517 Y93.199 E0.91074
G1 X121.757 Y93.333 E0.91988
G1 X122.556 Y93.824 E0.95108
G1 X123.239 Y94.325 E0.97925
G1 X123.39 Y94.445 E0.98566
G1 X123.661 Y94.668 E0.99734
G1 X123.885 Y94.858 E1.00711
G1 X124.574 Y95.495 E1.03832
G1 X125.19 Y96.168 E1.06866
G1 X125.479 Y96.517 E1.08373
G1 X125.642 Y96.72 E1.09239
G1 X126.198 Y97.476 E1.1236
G1 X126.654 Y98.216 E1.15251
G1 X126.767 Y98.417 E1.16018
G1 X126.975 Y98.806 E1.17485
G1 X127.096 Y99.043 E1.18371
G1 X127.486 Y99.896 E1.2149
G1 X127.735 Y100.566 E1.23867
G1 X127.785 Y100.716 E1.24393
G1 X127.915 Y101.134 E1.25849
G1 X128.008 Y101.455 E1.26961
G1 X128.23 Y102.366 E1.3008
G1 X128.363 Y103.199 E1.32885
G1 X128.387 Y103.398 E1.33552
G1 X128.428 Y103.801 E1.34899
G1 X128.436 Y103.897 E1.3522
G1 X128.472 Y104.584 E1.37508
G1 X128.497 Y105.794 E1.41533
G1 X128.5 Y106.759 E1.44743
G1 X128.473 Y108.799 E1.51528
G1 X128.473 Y111.435 E1.60296
G1 X128.497 Y112.51 E1.63872
G1 X128.5 Y112.756 E1.6469
G1 X128.499 Y114.42 E1.70225
G1 X128.488 Y115.217 E1.72876
G1 X128.47 Y115.703 E1.74493
G1 X128.465 Y115.789 E1.7478
G1 X128.316 Y117.067 E1.79059
G1 X128.215 Y117.638 E1.80988
G1 X128.012 Y118.554 E1.84109
G1 X127.637 Y119.703 E1.88129
G1 X127.571 Y119.873 E1.88735
G1 X127.429 Y120.221 E1.89985
G1 X127.307 Y120.506 E1.91016
G1 X126.902 Y121.352 E1.94136
G1 X126.426 Y122.159 E1.97252
G1 X126.31 Y122.338 E1.97962
G1 X126.13 Y122.607 E1.99038
G1 X125.976 Y122.83 E1.99939
G1 X125.411 Y123.578 E2.03057
G1 X124.903 Y124.152 E2.05607
G1 X124.772 Y124.29 E2.0624
G1 X124.444 Y124.621 E2.07789
G1 X124.226 Y124.832 E2.08799
G1 X123.525 Y125.455 E2.11918
G1 X122.83 Y125.977 E2.14809
G1 X122.626 Y126.118 E2.15634
G1 X122.327 Y126.318 E2.1683
G1 X122.122 Y126.45 E2.17641
G1 X121.313 Y126.923 E2.20758
G1 X120.477 Y127.322 E2.23839
G1 X120.268 Y127.411 E2.24594
G1 X119.811 Y127.596 E2.26234
G1 X118.926 Y127.905 E2.29352
G1 X118.375 Y128.056 E2.31252
G1 X118.229 Y128.092 E2.31752
G1 X117.58 Y128.232 E2.33961
G1 X117.28 Y128.287 E2.34975
G1 X116.024 Y128.443 E2.39185
G1 X115.647 Y128.468 E2.40441
G1 X115.312 Y128.485 E2.41557
G1 X114.837 Y128.498 E2.43137
G1 X114.581 Y128.5 E2.43989
G1 X113.06 Y128.499 E2.49048
G1 X111.229 Y128.473 E2.55138
G1 X108.619 Y128.473 E2.63819
G1 X107.415 Y128.498 E2.67824
G1 X107.187 Y128.5 E2.68583
G1 X105.559 Y128.499 E2.73998
G1 X105.037 Y128.492 E2.75734
G1 X104.325 Y128.459 E2.78105
G1 X103.648 Y128.406 E2.80363
G1 X102.717 Y128.293 E2.83482
G1 X101.597 Y128.048 E2.87296
G1 X101.422 Y128 E2.87899
G1 X100.989 Y127.872 E2.89401
G1 X100.71 Y127.783 E2.90375
G1 X99.829 Y127.46 E2.93496
G1 X99.058 Y127.104 E2.9632
G1 X98.85 Y126.998 E2.97097
G1 X98.436 Y126.775 E2.98661
G1 X98.181 Y126.631 E2.99635
G1 X97.385 Y126.136 E3.02753
G1 X96.665 Y125.6 E3.05738
G1 X96.334 Y125.328 E3.07163
G1 X96.109 Y125.137 E3.08145
G1 X95.421 Y124.5 E3.11263
G1 X94.8 Y123.82 E3.14326
G1 X94.488 Y123.443 E3.15954
G1 X94.321 Y123.233 E3.16846
G1 X93.77 Y122.474 E3.19966
G1 X93.313 Y121.724 E3.22887
G1 X93.197 Y121.515 E3.23682
G1 X93.009 Y121.161 E3.25015
G1 X92.885 Y120.917 E3.25925
G1 X92.496 Y120.063 E3.29046
G1 X92.179 Y119.173 E3.32189
G1 X92.078 Y118.84 E3.33346
G1 X91.995 Y118.554 E3.34337
G1 X91.772 Y117.643 E3.37456
G1 X91.641 Y116.826 E3.40208
G1 X91.616 Y116.622 E3.40892
G1 X91.572 Y116.198 E3.4231
G1 X91.564 Y116.102 E3.4263
G1 X91.528 Y115.415 E3.44918
G1 X91.503 Y114.206 E3.4894
G1 X91.5 Y113.212 E3.52246
G1 X91.527 Y111.198 E3.58945
G1 X91.527 Y108.565 E3.67703
G1 X91.503 Y107.49 E3.71279
G1 X91.5 Y107.244 E3.72097
G1 X91.501 Y105.549 E3.77735
G1 X91.509 Y104.992 E3.79588
G1 X91.542 Y104.289 E3.81928
G1 X91.592 Y103.652 E3.84054
G1 X91.705 Y102.721 E3.87173
G1 X91.979 Y101.497 E3.91345
G1 X92.042 Y101.276 E3.92109
G1 X92.153 Y100.914 E3.93368
G1 X92.234 Y100.663 E3.94246
G1 X92.559 Y99.783 E3.97366
G1 X92.925 Y99.001 E4.00237
G1 X93.025 Y98.807 E4.00963
G1 X93.198 Y98.485 E4.02179
G1 X93.332 Y98.245 E4.03093
G1 X93.823 Y97.446 E4.06213
G1 X94.272 Y96.829 E4.08751
G1 X94.369 Y96.705 E4.09274
G1 X94.632 Y96.382 E4.1066
G1 X94.834 Y96.143 E4.117
G1 X95.469 Y95.454 E4.14817
G0 F6000 X95.764 Y95.725
G1 F1200 X96.382 Y95.157 E4.17609
G1 X96.572 Y94.996 E4.18437
G1 X96.793 Y94.814 E4.19389
G1 X96.985 Y94.66 E4.20208
G1 X97.727 Y94.116 E4.23268
G1 X98.432 Y93.684 E4.26018
G1 X98.621 Y93.578 E4.26739
G1 X98.971 Y93.39 E4.2806
G1 X99.211 Y93.267 E4.28957
G1 X100.048 Y92.883 E4.3202
G1 X100.777 Y92.617 E4.34601
G1 X100.959 Y92.558 E4.35237
G1 X101.283 Y92.458 E4.36365
G1 X101.57 Y92.375 E4.37359
G1 X102.465 Y92.158 E4.40422
G1 X103.219 Y92.037 E4.42962
G1 X103.422 Y92.012 E4.43642
G1 X103.864 Y91.967 E4.4512
G1 X103.963 Y91.959 E4.4545
G1 X104.595 Y91.927 E4.47555
G1 X105.791 Y91.902 E4.51533
G1 X106.013 Y91.9 E4.52272
G1 X106.784 Y91.9 E4.54836
G1 X108.766 Y91.927 E4.61429
G1 X111.389 Y91.927 E4.70153
G1 X112.593 Y91.902 E4.74159
G1 X112.813 Y91.9 E4.7489
G1 X114.436 Y91.901 E4.80288
G1 X114.958 Y91.908 E4.82025
G1 X115.649 Y91.94 E4.84325
G1 X116.334 Y91.994 E4.86611
G1 X117.248 Y92.106 E4.89674
G1 X118.373 Y92.357 E4.93507
G1 X118.54 Y92.404 E4.94084
G1 X118.889 Y92.509 E4.95297
G1 X119.168 Y92.598 E4.96271
G1 X120.033 Y92.916 E4.99336
G1 X120.76 Y93.253 E5.02001
G1 X120.968 Y93.359 E5.02777
G1 X121.322 Y93.548 E5.04112
G1 X121.562 Y93.682 E5.05026
G1 X122.346 Y94.165 E5.08089
G1 X122.99 Y94.638 E5.10747
G1 X123.141 Y94.758 E5.11388
G1 X123.403 Y94.973 E5.12516
G1 X123.627 Y95.163 E5.13492
G1 X124.302 Y95.789 E5.16554
G1 X124.883 Y96.426 E5.19422
G1 X125.167 Y96.767 E5.20898
G1 X125.33 Y96.97 E5.21764
G1 X125.875 Y97.713 E5.24829
G1 X126.305 Y98.412 E5.27558
G1 X126.418 Y98.613 E5.28325
G1 X126.619 Y98.988 E5.2974
G1 X126.74 Y99.225 E5.30625
G1 X127.122 Y100.062 E5.33685
G1 X127.355 Y100.693 E5.35923
G1 X127.405 Y100.843 E5.36449
G1 X127.53 Y101.245 E5.37849
G1 X127.623 Y101.566 E5.3896
G1 X127.841 Y102.461 E5.42024
G1 X127.966 Y103.247 E5.44671
G1 X127.99 Y103.446 E5.45338
G1 X128.037 Y103.931 E5.46959
G1 X128.072 Y104.592 E5.4916
G1 X128.097 Y105.802 E5.53185
G1 X128.1 Y106.76 E5.56372
G1 X128.073 Y108.793 E5.63134
G1 X128.073 Y111.444 E5.71951
G1 X128.097 Y112.519 E5.75528
G1 X128.1 Y112.756 E5.76316
G1 X128.099 Y114.414 E5.81831
G1 X128.088 Y115.211 E5.84482
G1 X128.071 Y115.68 E5.86043
G1 X128.066 Y115.766 E5.86329
G1 X127.922 Y116.997 E5.90451
G1 X127.821 Y117.568 E5.9238
G1 X127.621 Y118.467 E5.95443
G1 X127.264 Y119.558 E5.99261
G1 X127.198 Y119.728 E5.99868
G1 X127.062 Y120.063 E6.0107
G1 X126.94 Y120.348 E6.02101
G1 X126.541 Y121.178 E6.05164
G1 X126.09 Y121.942 E6.08115
G1 X125.974 Y122.121 E6.08825
G1 X125.801 Y122.379 E6.09858
G1 X125.647 Y122.602 E6.10759
G1 X125.092 Y123.337 E6.13822
G1 X124.613 Y123.877 E6.16223
G1 X124.482 Y124.015 E6.16856
G1 X124.166 Y124.334 E6.1835
G1 X123.948 Y124.545 E6.19359
G1 X123.259 Y125.156 E6.22422
G1 X122.603 Y125.648 E6.25149
G1 X122.399 Y125.789 E6.25974
G1 X122.111 Y125.981 E6.27125
G1 X121.906 Y126.113 E6.27936
G1 X121.111 Y126.578 E6.30999
G1 X120.32 Y126.954 E6.33912
G1 X120.111 Y127.043 E6.34668
G1 X119.663 Y127.224 E6.36275
G1 X118.794 Y127.527 E6.39336
G1 X118.28 Y127.668 E6.41108
G1 X118.134 Y127.704 E6.41609
G1 X117.507 Y127.838 E6.43741
G1 X117.207 Y127.893 E6.44756
G1 X115.997 Y128.044 E6.48811
G1 X115.62 Y128.069 E6.50068
G1 X115.297 Y128.085 E6.51144
G1 X114.834 Y128.098 E6.52684
G1 X114.578 Y128.1 E6.53536
G1 X113.065 Y128.099 E6.58568
G1 X111.234 Y128.073 E6.64658
G1 X108.611 Y128.073 E6.73383
G1 X107.407 Y128.098 E6.77388
G1 X107.187 Y128.1 E6.7812
G1 X105.564 Y128.099 E6.83518
G1 X105.042 Y128.092 E6.85254
G1 X104.357 Y128.061 E6.87535
G1 X103.68 Y128.008 E6.89793
G1 X102.766 Y127.896 E6.92856
G1 X101.703 Y127.662 E6.96476
G1 X101.528 Y127.614 E6.9708
G1 X101.111 Y127.491 E6.98526
G1 X100.832 Y127.402 E6.995
G1 X99.967 Y127.084 E7.02565
G1 X99.24 Y126.747 E7.0523
G1 X99.032 Y126.641 E7.06007
G1 X98.633 Y126.427 E7.07513
G1 X98.378 Y126.283 E7.08487
G1 X97.597 Y125.796 E7.11548
G1 X96.917 Y125.289 E7.14369
G1 X96.593 Y125.023 E7.15763
G1 X96.368 Y124.832 E7.16745
G1 X95.693 Y124.206 E7.19807
G1 X95.106 Y123.563 E7.22703
G1 X94.976 Y123.408 E7.23376
G1 X94.802 Y123.194 E7.24293
G1 X94.635 Y122.984 E7.25185
G1 X94.093 Y122.239 E7.2825
G1 X93.663 Y121.53 E7.31007
G1 X93.547 Y121.321 E7.31802
G1 X93.365 Y120.979 E7.33091
G1 X93.241 Y120.735 E7.34001
G1 X92.86 Y119.897 E7.37063
G1 X92.561 Y119.055 E7.40035
G1 X92.462 Y118.728 E7.41171
G1 X92.379 Y118.442 E7.42162
G1 X92.161 Y117.548 E7.45222
G1 X92.038 Y116.777 E7.47819
G1 X92.013 Y116.573 E7.48503
G1 X91.971 Y116.164 E7.4987
G1 X91.963 Y116.068 E7.50191
G1 X91.928 Y115.407 E7.52392
G1 X91.903 Y114.198 E7.56414
G1 X91.9 Y113.212 E7.59694
G1 X91.927 Y111.204 E7.66373
G1 X91.927 Y108.556 E7.7518
G1 X91.903 Y107.481 E7.78757
G1 X91.9 Y107.244 E7.79545
G1 X91.901 Y105.555 E7.85163
G1 X91.909 Y104.998 E7.87015
G1 X91.941 Y104.321 E7.8927
G1 X91.991 Y103.684 E7.91395
G1 X92.102 Y102.77 E7.94457
G1 X92.364 Y101.607 E7.98422
G1 X92.427 Y101.386 E7.99186
G1 X92.533 Y101.037 E8.004
G1 X92.614 Y100.786 E8.01277
G1 X92.935 Y99.923 E8.04339
G1 X93.28 Y99.184 E8.07052
G1 X93.38 Y98.99 E8.07778
G1 X93.547 Y98.68 E8.08949
G1 X93.681 Y98.44 E8.09863
G1 X94.164 Y97.656 E8.12926
G1 X94.587 Y97.076 E8.15314
G1 X94.684 Y96.952 E8.15837
G1 X94.937 Y96.641 E8.17171
G1 X95.139 Y96.402 E8.18211
G1 X95.764 Y95.725 E8.21276
G0 F6000 X96.058 Y95.997
G1 F1200 X96.641 Y95.462 E8.23908
G1 X96.831 Y95.301 E8.24736
G1 X97.043 Y95.126 E8.2565
G1 X97.235 Y94.972 E8.26469
G1 X97.964 Y94.439 E8.29473
G1 X98.628 Y94.033 E8.32061
G1 X98.817 Y93.927 E8.32782
G1 X99.154 Y93.746 E8.34054
G1 X99.394 Y93.623 E8.34951
G1 X100.215 Y93.247 E8.37955
G1 X100.901 Y92.997 E8.40383
G1 X101.083 Y92.938 E8.41019
G1 X101.394 Y92.843 E8.42101
G1 X101.681 Y92.76 E8.43095
G1 X102.559 Y92.547 E8.461
G1 X103.268 Y92.434 E8.48488
G1 X103.471 Y92.409 E8.49168
G1 X103.896 Y92.366 E8.50589
G1 X103.995 Y92.358 E8.50919
G1 X104.604 Y92.327 E8.52947
G1 X105.8 Y92.302 E8.56926
G1 X106.013 Y92.3 E8.57634
G1 X106.784 Y92.3 E8.60199
G1 X108.76 Y92.327 E8.66772
G1 X111.397 Y92.327 E8.75542
G1 X112.601 Y92.302 E8.79548
G1 X112.813 Y92.3 E8.80253
G1 X114.431 Y92.301 E8.85634
G1 X114.953 Y92.308 E8.87371
G1 X115.618 Y92.339 E8.89585
G1 X116.303 Y92.393 E8.9187
G1 X117.199 Y92.503 E8.94873
G1 X118.264 Y92.742 E8.98503
G1 X118.431 Y92.789 E8.9908
G1 X118.768 Y92.89 E9.0025
G1 X119.047 Y92.979 E9.01224
G1 X119.894 Y93.292 E9.04227
G1 X120.578 Y93.609 E9.06735
G1 X120.786 Y93.715 E9.07511
G1 X121.127 Y93.897 E9.08797
G1 X121.367 Y94.031 E9.09711
G1 X122.136 Y94.506 E9.12717
G1 X122.741 Y94.952 E9.15217
G1 X122.892 Y95.072 E9.15859
G1 X123.144 Y95.278 E9.16941
G1 X123.368 Y95.468 E9.17918
G1 X124.03 Y96.082 E9.20921
G1 X124.577 Y96.683 E9.23624
G1 X124.855 Y97.018 E9.25072
G1 X125.018 Y97.221 E9.25938
G1 X125.552 Y97.949 E9.28941
G1 X125.956 Y98.608 E9.31512
G1 X126.069 Y98.809 E9.32279
G1 X126.263 Y99.17 E9.33642
G1 X126.384 Y99.407 E9.34527
G1 X126.758 Y100.229 E9.37531
G1 X126.976 Y100.819 E9.39623
G1 X127.026 Y100.969 E9.40149
G1 X127.146 Y101.357 E9.41499
G1 X127.239 Y101.678 E9.42611
G1 X127.452 Y102.555 E9.45613
G1 X127.569 Y103.295 E9.48105
G1 X127.593 Y103.494 E9.48771
G1 X127.639 Y103.964 E9.50342
G1 X127.672 Y104.6 E9.5246
G1 X127.697 Y105.81 E9.56485
G1 X127.7 Y106.76 E9.59645
G1 X127.673 Y108.788 E9.66391
G1 X127.673 Y111.453 E9.75255
G1 X127.697 Y112.528 E9.78831
G1 X127.7 Y112.756 E9.7959
G1 X127.699 Y114.409 E9.85087
G1 X127.688 Y115.206 E9.87739
G1 X127.672 Y115.657 E9.89239
G1 X127.667 Y115.743 E9.89526
G1 X127.528 Y116.928 E9.93494
G1 X127.427 Y117.499 E9.95423
G1 X127.231 Y118.38 E9.98425
G1 X126.892 Y119.414 E10.02044
G1 X126.826 Y119.584 E10.02651
G1 X126.694 Y119.906 E10.03808
G1 X126.572 Y120.191 E10.04839
G1 X126.18 Y121.005 E10.07844
G1 X125.755 Y121.724 E10.10622
G1 X125.639 Y121.903 E10.11332
G1 X125.472 Y122.152 E10.12329
G1 X125.318 Y122.375 E10.1323
G1 X124.773 Y123.095 E10.16234
G1 X124.323 Y123.601 E10.18486
G1 X124.192 Y123.739 E10.19119
G1 X123.888 Y124.046 E10.20556
G1 X123.67 Y124.257 E10.21565
G1 X122.994 Y124.856 E10.24569
G1 X122.376 Y125.319 E10.27137
G1 X122.172 Y125.46 E10.27962
G1 X121.894 Y125.645 E10.29073
G1 X121.689 Y125.777 E10.29884
G1 X120.909 Y126.232 E10.32887
G1 X120.163 Y126.586 E10.35633
G1 X119.731 Y126.767 E10.37191
G1 X119.515 Y126.853 E10.37964
G1 X118.662 Y127.149 E10.40967
G1 X118.184 Y127.279 E10.42615
G1 X118.038 Y127.315 E10.43115
G1 X117.435 Y127.445 E10.45167
G1 X117.135 Y127.5 E10.46181
G1 X115.971 Y127.645 E10.50083
G1 X115.594 Y127.67 E10.51339
G1 X115.283 Y127.686 E10.52375
G1 X115.115 Y127.692 E10.52934
G1 X114.831 Y127.698 E10.53879
G1 X114.575 Y127.7 E10.54731
G1 X113.071 Y127.699 E10.59733
G1 X111.24 Y127.673 E10.65823
G1 X108.603 Y127.673 E10.74594
G1 X107.399 Y127.698 E10.78599
G1 X107.187 Y127.7 E10.79305
G1 X105.569 Y127.699 E10.84686
G1 X105.047 Y127.692 E10.86422
G1 X104.388 Y127.662 E10.88617
G1 X103.711 Y127.609 E10.90875
G1 X102.815 Y127.499 E10.93878
G1 X101.809 Y127.277 E10.97304
G1 X101.634 Y127.229 E10.97908
G1 X101.232 Y127.11 E10.99302
G1 X100.953 Y127.021 E11.00276
G1 X100.106 Y126.708 E11.03279
G1 X99.422 Y126.391 E11.05787
G1 X99.214 Y126.285 E11.06563
G1 X98.829 Y126.079 E11.08016
G1 X98.574 Y125.935 E11.0899
G1 X97.809 Y125.456 E11.11992
G1 X97.169 Y124.978 E11.14649
G1 X96.852 Y124.718 E11.16012
G1 X96.627 Y124.527 E11.16994
G1 X95.965 Y123.913 E11.19997
G1 X95.413 Y123.306 E11.22726
G1 X95.283 Y123.151 E11.23399
G1 X95.115 Y122.945 E11.24283
G1 X94.948 Y122.735 E11.25175
G1 X94.417 Y122.004 E11.2818
G1 X94.013 Y121.336 E11.30777
G1 X93.897 Y121.127 E11.31572
G1 X93.722 Y120.798 E11.32811
G1 X93.598 Y120.554 E11.33721
G1 X93.225 Y119.732 E11.36724
G1 X92.943 Y118.937 E11.39529
G1 X92.846 Y118.617 E11.40641
G1 X92.763 Y118.331 E11.41632
G1 X92.55 Y117.453 E11.44637
G1 X92.435 Y116.729 E11.47075
G1 X92.41 Y116.525 E11.47759
G1 X92.369 Y116.131 E11.49076
G1 X92.361 Y116.035 E11.49397
G1 X92.328 Y115.399 E11.51515
G1 X92.303 Y114.19 E11.55537
G1 X92.3 Y113.211 E11.58793
