;FLAVOR:Marlin
;TIME:10181
;Filament used: 6.14877m
;Layer height: 0.2
;MINX:83.5
;MINY:83.5
;MINZ:0.2
;MAXX:136.5
;MAXY:136.5
;MAXZ:31
;Generated with Cura_SteamEngine 4.8.0
M140 S55
M105
M190 S55
M104 S215
M105
M109 S215
M82 ;absolute extrusion mode
; Ender 3 Custom Start G-code
G92 E0 ; Reset Extruder
G28 ; Home all axes
G1 Z2.0 F3000 ; Move Z Axis up little to prevent scratching of Heat Bed
G1 X0.1 Y20 Z0.3 F5000.0 ; Move to start position
G1 X0.1 Y200.0 Z0.3 F1500.0 E15 ; Draw the first line
G1 X0.4 Y200.0 Z0.3 F5000.0 ; Move to side a little
G1 X0.4 Y20 Z0.3 F1500.0 E30 ; Draw the second line
G92 E0 ; Reset Extruder
G1 Z2.0 F3000 ; Move Z Axis up little to prevent scratching of Heat Bed
G1 X5 Y20 Z0.3 F5000.0 ; Move over to prevent blob squish
G92 E0
G92 E0
G1 F1500 E-6.5
;LAYER_COUNT:155
;LAYER:0
M107
G0 F6000 X86.698 Y86.764 Z0.2
;TYPE:SKIRT
G1 F1500 E0
G1 F1200 X87.386 Y86.127 E0.03119
G1 X88.126 Y85.551 E0.06237
G1 X88.912 Y85.039 E0.09357
G1 X89.739 Y84.597 E0.12476
G1 X90.601 Y84.227 E0.15596
G1 X91.491 Y83.931 E0.18716
G1 X92.403 Y83.713 E0.21835
G1 X93.33 Y83.572 E0.24953
G1 X94.201 Y83.513 E0.27857
G1 X94.522 Y83.504 E0.28925
G1 X94.83 Y83.5 E0.29949
G1 X124.793 Y83.5 E1.29607
G1 X125.649 Y83.511 E1.32454
G1 X126.585 Y83.565 E1.35572
G1 X127.513 Y83.697 E1.3869
G1 X128.427 Y83.909 E1.41811
G1 X129.319 Y84.198 E1.44929
G1 X130.184 Y84.561 E1.48049
G1 X131.014 Y84.997 E1.51168
G1 X131.805 Y85.502 E1.54289
G1 X132.549 Y86.073 E1.57408
G1 X133.242 Y86.705 E1.60528
G1 X133.879 Y87.393 E1.63646
G1 X134.454 Y88.134 E1.66766
G1 X134.965 Y88.92 E1.69884
G1 X135.407 Y89.748 E1.73006
G1 X135.776 Y90.61 E1.76124
G1 X136.071 Y91.5 E1.79243
G1 X136.289 Y92.412 E1.82362
G1 X136.429 Y93.34 E1.85483
G1 X136.487 Y94.201 E1.88353
G1 X136.496 Y94.521 E1.89418
G1 X136.5 Y94.83 E1.90446
G1 X136.499 Y112.95 E2.50713
G1 X136.489 Y113.652 E2.53048
G1 X136.436 Y114.588 E2.56167
G1 X136.303 Y115.516 E2.59285
G1 X136.091 Y116.43 E2.62405
G1 X135.803 Y117.323 E2.65526
G1 X135.439 Y118.187 E2.68644
G1 X135.003 Y119.018 E2.71766
G1 X134.498 Y119.808 E2.74884
G1 X133.928 Y120.552 E2.78002
G1 X133.296 Y121.245 E2.81121
G1 X132.648 Y121.848 E2.84065
G1 X132.109 Y122.31 E2.86426
G1 X130.156 Y124.031 E2.95084
G1 X128.318 Y125.744 E3.03441
G1 X126.525 Y127.516 E3.11825
G1 X124.787 Y129.333 E3.20188
G1 X123.129 Y131.166 E3.28409
G1 X122.334 Y132.096 E3.32478
G1 X121.755 Y132.755 E3.35396
G1 X121.106 Y133.432 E3.38515
G1 X120.402 Y134.052 E3.41635
G1 X119.648 Y134.609 E3.44753
G1 X118.849 Y135.1 E3.47872
G1 X118.011 Y135.521 E3.50991
G1 X117.14 Y135.87 E3.54112
G1 X116.243 Y136.142 E3.5723
G1 X115.325 Y136.338 E3.60352
G1 X114.395 Y136.454 E3.63469
G1 X113.799 Y136.487 E3.65454
G1 X113.474 Y136.496 E3.66536
G1 X113.17 Y136.5 E3.67547
G1 X95.065 Y136.499 E4.27764
G1 X94.367 Y136.49 E4.30086
G1 X93.431 Y136.438 E4.33204
G1 X92.502 Y136.306 E4.36325
G1 X91.588 Y136.096 E4.39444
G1 X90.695 Y135.809 E4.42564
G1 X89.83 Y135.446 E4.45684
G1 X88.999 Y135.012 E4.48802
G1 X88.208 Y134.508 E4.51922
G1 X87.463 Y133.938 E4.55042
G1 X86.769 Y133.307 E4.58161
G1 X86.132 Y132.62 E4.61277
G1 X85.555 Y131.88 E4.64398
G1 X85.043 Y131.094 E4.67518
G1 X84.6 Y130.267 E4.70639
G1 X84.229 Y129.406 E4.73757
G1 X83.933 Y128.516 E4.76877
G1 X83.714 Y127.604 E4.79996
G1 X83.573 Y126.677 E4.83115
G1 X83.513 Y125.788 E4.86078
G1 X83.504 Y125.455 E4.87186
G1 X83.5 Y125.158 E4.88174
G1 X83.501 Y95.025 E5.88397
G1 X83.51 Y94.36 E5.90609
G1 X83.563 Y93.424 E5.93727
G1 X83.695 Y92.495 E5.96848
G1 X83.906 Y91.581 E5.99968
G1 X84.194 Y90.689 E6.03086
G1 X84.557 Y89.824 E6.06206
G1 X84.992 Y88.993 E6.09325
G1 X85.496 Y88.203 E6.12442
G1 X86.066 Y87.458 E6.15562
G1 X86.698 Y86.764 E6.18684
G0 F6000 X87.089 Y86.939
G1 F1200 X87.774 Y86.323 E6.21748
G1 X88.51 Y85.77 E6.2481
G1 X89.291 Y85.282 E6.27873
G1 X90.111 Y84.864 E6.30934
G1 X90.965 Y84.519 E6.33998
G1 X91.845 Y84.249 E6.37059
G1 X92.745 Y84.057 E6.4012
G1 X93.659 Y83.943 E6.43183
G1 X94.212 Y83.913 E6.45025
G1 X94.533 Y83.904 E6.46094
G1 X94.83 Y83.9 E6.47081
G1 X124.793 Y83.9 E7.46739
G1 X125.643 Y83.911 E7.49566
G1 X126.562 Y83.964 E7.52628
G1 X127.473 Y84.097 E7.5569
G1 X128.369 Y84.308 E7.58752
G1 X129.243 Y84.596 E7.61812
G1 X130.09 Y84.959 E7.64877
G1 X130.901 Y85.394 E7.67938
G1 X131.671 Y85.898 E7.70999
G1 X132.395 Y86.467 E7.74062
G1 X133.067 Y87.097 E7.77125
G1 X133.682 Y87.782 E7.80187
G1 X134.235 Y88.518 E7.83249
G1 X134.722 Y89.299 E7.8631
G1 X135.139 Y90.12 E7.89373
G1 X135.484 Y90.974 E7.92437
G1 X135.753 Y91.854 E7.95497
G1 X135.945 Y92.755 E7.98561
G1 X136.058 Y93.668 E8.01621
G1 X136.087 Y94.212 E8.03433
G1 X136.096 Y94.532 E8.04498
G1 X136.1 Y94.83 E8.05489
G1 X136.099 Y112.944 E8.65736
G1 X136.089 Y113.646 E8.68071
G1 X136.036 Y114.565 E8.71133
G1 X135.903 Y115.476 E8.74195
G1 X135.692 Y116.372 E8.77257
G1 X135.404 Y117.247 E8.80321
G1 X135.041 Y118.093 E8.83383
G1 X134.606 Y118.904 E8.86443
G1 X134.102 Y119.675 E8.89507
G1 X133.534 Y120.399 E8.92568
G1 X132.904 Y121.071 E8.95631
G1 X132.387 Y121.544 E8.97962
G1 X131.868 Y121.989 E9.00236
G1 X129.882 Y123.739 E9.0904
G1 X128.053 Y125.444 E9.17357
G1 X126.256 Y127.22 E9.2576
G1 X124.502 Y129.052 E9.34196
G1 X122.794 Y130.941 E9.42666
G1 X121.929 Y131.952 E9.47091
G1 X121.455 Y132.491 E9.49479
G1 X120.817 Y133.155 E9.52541
G1 X120.125 Y133.762 E9.55603
G1 X119.382 Y134.306 E9.58666
G1 X118.595 Y134.783 E9.61726
G1 X117.769 Y135.191 E9.64791
G1 X116.912 Y135.525 E9.6785
G1 X116.028 Y135.784 E9.70914
G1 X115.125 Y135.965 E9.73977
G1 X113.788 Y136.087 E9.78442
G1 X113.463 Y136.096 E9.79523
G1 X113.17 Y136.1 E9.80498
G1 X95.07 Y136.099 E10.40699
G1 X94.372 Y136.09 E10.43021
G1 X93.453 Y136.038 E10.46082
G1 X92.542 Y135.907 E10.49143
G1 X91.646 Y135.697 E10.52204
G1 X90.771 Y135.41 E10.55267
G1 X89.924 Y135.048 E10.58331
G1 X89.112 Y134.614 E10.61393
G1 X88.341 Y134.112 E10.64453
G1 X87.616 Y133.544 E10.67516
G1 X86.943 Y132.915 E10.7058
G1 X86.328 Y132.231 E10.73639
G1 X85.774 Y131.496 E10.76701
G1 X85.286 Y130.715 E10.79764
G1 X84.867 Y129.895 E10.82826
G1 X84.521 Y129.042 E10.85888
G1 X84.251 Y128.162 E10.8895
G1 X84.058 Y127.261 E10.92014
G1 X83.944 Y126.348 E10.95075
G1 X83.913 Y125.777 E10.96977
G1 X83.904 Y125.444 E10.98085
G1 X83.9 Y125.158 E10.99036
G1 X83.901 Y95.031 E11.99239
G1 X83.91 Y94.366 E12.01451
G1 X83.962 Y93.446 E12.04515
G1 X84.094 Y92.535 E12.07577
G1 X84.305 Y91.639 E12.10639
G1 X84.592 Y90.764 E12.13702
G1 X84.955 Y89.918 E12.16763
G1 X85.389 Y89.106 E12.19826
G1 X85.892 Y88.335 E12.22888
G1 X86.461 Y87.611 E12.2595
G1 X87.089 Y86.939 E12.29009
G0 F6000 X87.481 Y87.117
G1 F1200 X88.162 Y86.524 E12.32013
G1 X88.894 Y85.994 E12.35019
G1 X89.669 Y85.531 E12.38021
G1 X90.482 Y85.138 E12.41025
G1 X91.327 Y84.818 E12.4403
G1 X92.196 Y84.575 E12.47031
G1 X93.084 Y84.409 E12.50036
G1 X94.223 Y84.313 E12.53838
G1 X94.544 Y84.304 E12.54906
G1 X94.83 Y84.3 E12.55857
G1 X124.793 Y84.3 E13.55514
G1 X125.637 Y84.311 E13.58322
G1 X126.539 Y84.364 E13.61327
G1 X127.432 Y84.496 E13.64329
G1 X128.31 Y84.707 E13.67333
G1 X129.166 Y84.995 E13.70337
G1 X129.993 Y85.357 E13.73339
G1 X130.785 Y85.792 E13.76345
G1 X131.536 Y86.294 E13.79349
G1 X132.239 Y86.861 E13.82353
G1 X132.889 Y87.488 E13.85357
G1 X133.481 Y88.17 E13.8836
G1 X134.011 Y88.901 E13.91364
G1 X134.473 Y89.677 E13.94367
G1 X134.866 Y90.49 E13.97371
G1 X135.184 Y91.335 E14.00374
G1 X135.427 Y92.205 E14.03378
G1 X135.592 Y93.093 E14.06382
G1 X135.687 Y94.223 E14.10154
G1 X135.696 Y94.543 E14.11219
G1 X135.7 Y94.83 E14.12173
G1 X135.699 Y112.938 E14.72401
G1 X135.689 Y113.64 E14.74736
G1 X135.636 Y114.542 E14.77741
G1 X135.504 Y115.435 E14.80743
G1 X135.293 Y116.313 E14.83747
G1 X135.005 Y117.169 E14.86751
G1 X134.643 Y117.997 E14.89756
G1 X134.209 Y118.789 E14.9276
G1 X133.706 Y119.539 E14.95764
G1 X133.14 Y120.242 E14.98765
G1 X132.513 Y120.892 E15.01769
G1 X132.127 Y121.24 E15.03498
G1 X131.64 Y121.657 E15.0563
G1 X129.609 Y123.447 E15.14635
G1 X127.777 Y125.155 E15.22965
G1 X125.951 Y126.959 E15.31503
G1 X124.216 Y128.773 E15.39851
G1 X122.494 Y130.676 E15.48387
G1 X121.629 Y131.688 E15.52815
G1 X121.155 Y132.227 E15.55203
G1 X120.529 Y132.878 E15.58207
G1 X119.848 Y133.471 E15.6121
G1 X119.117 Y134.002 E15.64215
G1 X118.342 Y134.466 E15.67219
G1 X117.529 Y134.859 E15.70223
G1 X116.685 Y135.179 E15.73225
G1 X115.815 Y135.424 E15.76231
G1 X114.928 Y135.59 E15.79232
G1 X113.777 Y135.687 E15.83074
G1 X113.452 Y135.696 E15.84156
G1 X113.17 Y135.7 E15.85094
G1 X95.075 Y135.699 E16.45278
G1 X94.377 Y135.69 E16.476
G1 X93.476 Y135.639 E16.50601
G1 X92.582 Y135.507 E16.53607
G1 X91.704 Y135.298 E16.56609
G1 X90.847 Y135.011 E16.59615
G1 X90.02 Y134.65 E16.62616
G1 X89.227 Y134.217 E16.65621
G1 X88.476 Y133.716 E16.68624
G1 X87.772 Y133.15 E16.71628
G1 X87.121 Y132.524 E16.74632
G1 X86.528 Y131.843 E16.77635
G1 X85.998 Y131.112 E16.80638
G1 X85.534 Y130.337 E16.83643
G1 X85.14 Y129.524 E16.86648
G1 X84.82 Y128.68 E16.8965
G1 X84.576 Y127.81 E16.92655
G1 X84.41 Y126.922 E16.9566
G1 X84.313 Y125.767 E16.99515
G1 X84.304 Y125.434 E17.00623
G1 X84.3 Y125.158 E17.01541
G1 X84.301 Y95.036 E18.01727
G1 X84.31 Y94.371 E18.03939
G1 X84.362 Y93.469 E18.06944
G1 X84.494 Y92.576 E18.09946
G1 X84.704 Y91.698 E18.12949
G1 X84.991 Y90.841 E18.15955
G1 X85.353 Y90.014 E18.18958
G1 X85.786 Y89.222 E18.2196
G1 X86.288 Y88.471 E18.24964
G1 X86.855 Y87.767 E18.27971
G1 X87.481 Y87.117 E18.30972
G1 F1500 E11.80972
;MESH:Vertex.stl
G0 F6000 X103.181 Y103.555
G0 X101.892 Y102.865
G0 X101.968 Y104.19
G0 X102.043 Y104.584
G0 X102.195 Y104.955
G0 X102.417 Y105.289
G0 X102.704 Y105.577
G0 X103.004 Y105.777
G0 X104.217 Y106.192
;TYPE:WALL-INNER
G1 F1500 E18.30972
G1 F1200 X104.639 Y106.108 E18.32403
G1 X105.038 Y105.943 E18.3384
G1 X105.396 Y105.704 E18.35271
G1 X105.698 Y105.404 E18.36687
G1 X105.939 Y105.044 E18.38128
G1 X106.104 Y104.647 E18.39558
G1 X106.19 Y104.226 E18.40987
G1 X106.193 Y103.794 E18.42424
G1 X106.111 Y103.369 E18.43864
G1 X105.947 Y102.969 E18.45301
G1 X105.708 Y102.609 E18.46739
G1 X105.398 Y102.297 E18.48201
G1 X105.038 Y102.057 E18.49641
G1 X104.639 Y101.892 E18.51077
G1 X104.217 Y101.808 E18.52508
G1 X103.783 Y101.808 E18.53951
G1 X103.361 Y101.892 E18.55382
G1 X102.962 Y102.057 E18.56818
G1 X102.604 Y102.296 E18.5825
G1 X102.302 Y102.596 E18.59666
G1 X102.061 Y102.956 E18.61107
G1 X101.896 Y103.353 E18.62537
G1 X101.81 Y103.774 E18.63966
G1 X101.807 Y104.206 E18.65403
G1 X101.889 Y104.631 E18.66842
G1 X102.053 Y105.031 E18.6828
G1 X102.292 Y105.391 E18.69717
G1 X102.602 Y105.703 E18.7118
G1 X102.962 Y105.943 E18.72619
G1 X103.361 Y106.108 E18.74055
G1 X103.783 Y106.192 E18.75487
G1 X104.217 Y106.192 E18.7693
G0 F6000 X104.177 Y105.792
;TYPE:WALL-OUTER
G1 F1200 X104.522 Y105.723 E18.781
G1 X104.849 Y105.588 E18.79277
G1 X105.142 Y105.393 E18.80448
G1 X105.388 Y105.148 E18.81602
G1 X105.585 Y104.854 E18.82779
G1 X105.72 Y104.529 E18.8395
G1 X105.79 Y104.184 E18.85121
G1 X105.793 Y103.831 E18.86295
G1 X105.726 Y103.484 E18.8747
G1 X105.592 Y103.157 E18.88646
G1 X105.397 Y102.863 E18.89819
G1 X105.143 Y102.608 E18.91016
G1 X104.849 Y102.412 E18.92191
G1 X104.522 Y102.277 E18.93368
G1 X104.177 Y102.208 E18.94538
G1 X103.823 Y102.208 E18.95716
G1 X103.478 Y102.277 E18.96886
G1 X103.151 Y102.412 E18.98062
G1 X102.858 Y102.607 E18.99233
G1 X102.612 Y102.852 E19.00388
G1 X102.415 Y103.146 E19.01565
G1 X102.28 Y103.471 E19.02735
G1 X102.21 Y103.816 E19.03906
G1 X102.207 Y104.169 E19.0508
G1 X102.274 Y104.516 E19.06256
G1 X102.408 Y104.843 E19.07431
G1 X102.603 Y105.137 E19.08605
G1 X102.857 Y105.392 E19.09802
G1 X103.151 Y105.588 E19.10977
G1 X103.478 Y105.723 E19.12154
G1 X103.823 Y105.792 E19.13324
G1 X104.177 Y105.792 E19.14501
G0 F6000 X104.22 Y106.229
G1 F1500 E12.64501
G0 F6000 X105.127 Y106.133
G0 X104.442 Y104.821
G0 X114.165 Y122.553
G0 X112.73 Y122.553
G0 X112.9 Y124.9
;TYPE:WALL-INNER
G1 F1500 E19.14501
G1 F1200 X95.1 Y124.9 E19.73704
G1 X95.1 Y95.1 E20.72819
G1 X124.9 Y95.1 E21.71935
G1 X124.9 Y112.9 E22.31138
G1 X112.9 Y112.9 E22.7105
G1 X112.9 Y124.9 E23.10962
G0 F6000 X113.3 Y125.3
;TYPE:WALL-OUTER
G1 F1200 X94.7 Y125.3 E23.72826
G1 X94.7 Y94.7 E24.74602
G1 X125.3 Y94.7 E25.76378
G1 X125.3 Y113.3 E26.38242
G1 X113.3 Y113.3 E26.78154
G1 X113.3 Y125.3 E27.18066
G0 F6000 X113.03 Y125.03
G0 X112.79 Y124.51
G0 X112.51 Y124.51
;TYPE:SKIN
G1 F1200 X95.49 Y124.51 E27.74675
G1 X95.49 Y95.49 E28.71196
G1 X124.51 Y95.49 E29.67717
G1 X124.51 Y112.51 E30.24325
G1 X112.51 Y112.51 E30.64238
G1 X112.51 Y124.51 E31.0415
G1 F1500 E24.5415
G0 F6000 X112.79 Y124.51
G0 X112.73 Y122.553
G0 X114.165 Y122.553
G0 X104.593 Y104.721
G0 X105.721 Y105.677
G0 X105.09 Y106.04
G0 X105.223 Y106.288
G1 F1500 E31.0415
G1 F1200 X105.644 Y106.008 E31.05831
G1 X106 Y105.653 E31.07504
G1 X106.284 Y105.229 E31.09201
G1 X106.478 Y104.762 E31.10883
G1 X106.58 Y104.267 E31.12564
G1 X106.583 Y103.759 E31.14253
G1 X106.487 Y103.258 E31.1595
G1 X106.294 Y102.786 E31.17646
G1 X106.012 Y102.361 E31.19343
G1 X105.647 Y101.995 E31.21062
G1 X105.223 Y101.712 E31.22757
G1 X104.752 Y101.517 E31.24453
G1 X104.256 Y101.418 E31.26135
G1 X103.744 Y101.418 E31.27838
G1 X103.248 Y101.517 E31.2952
G1 X102.777 Y101.712 E31.31216
G1 X102.356 Y101.992 E31.32897
G1 X102 Y102.347 E31.3457
G1 X101.716 Y102.771 E31.36267
G1 X101.522 Y103.238 E31.37949
G1 X101.42 Y103.733 E31.3963
G1 X101.417 Y104.241 E31.41319
G1 X101.513 Y104.742 E31.43016
G1 X101.706 Y105.214 E31.44712
G1 X101.988 Y105.639 E31.46409
G1 X102.353 Y106.005 E31.48128
G1 X102.777 Y106.288 E31.49823
G1 X103.248 Y106.483 E31.51519
G1 X103.744 Y106.582 E31.53201
G1 X104.256 Y106.582 E31.54904
G1 X104.752 Y106.483 E31.56586
G1 X105.223 Y106.288 E31.58282
G1 F1500 E25.08282
G0 F6000 X105.09 Y106.04
G0 X103.763 Y106.383
G0 X103.908 Y104.928
G0 X103.763 Y126.165
G0 X103.763 Y124.69
G0 X96.064 Y124.79
G0 X96.064 Y124.348
G1 F1500 E31.58282
G1 F1200 X95.649 Y123.933 E31.60234
G0 F6000 X95.649 Y123.368
G1 F1200 X96.63 Y124.348 E31.64846
G0 F6000 X97.196 Y124.348
G1 F1200 X95.649 Y122.802 E31.7212
G0 F6000 X95.649 Y122.236
G1 F1200 X97.761 Y124.348 E31.82054
G0 F6000 X98.327 Y124.348
G1 F1200 X95.649 Y121.671 E31.94648
G0 F6000 X95.649 Y121.105
G1 F1200 X98.893 Y124.348 E32.09905
G0 F6000 X99.458 Y124.348
G1 F1200 X95.649 Y120.539 E32.27821
G0 F6000 X95.649 Y119.974
G1 F1200 X100.024 Y124.348 E32.48397
G0 F6000 X100.59 Y124.348
G1 F1200 X95.649 Y119.408 E32.71636
G0 F6000 X95.649 Y118.842
G1 F1200 X101.155 Y124.348 E32.97534
G0 F6000 X101.721 Y124.348
G1 F1200 X95.649 Y118.277 E33.26093
G0 F6000 X95.649 Y117.711
G1 F1200 X102.287 Y124.348 E33.57314
G0 F6000 X102.852 Y124.348
G1 F1200 X95.649 Y117.145 E33.91194
G0 F6000 X95.649 Y116.579
G1 F1200 X103.418 Y124.348 E34.27737
G0 F6000 X103.984 Y124.348
G1 F1200 X95.649 Y116.014 E34.6694
G0 F6000 X95.649 Y115.448
G1 F1200 X104.549 Y124.348 E35.08803
G0 F6000 X105.115 Y124.348
G1 F1200 X95.649 Y114.882 E35.53328
G0 F6000 X95.649 Y114.317
G1 F1200 X105.681 Y124.348 E36.00513
G0 F6000 X106.247 Y124.348
G1 F1200 X95.649 Y113.751 E36.50361
G0 F6000 X95.649 Y113.185
G1 F1200 X106.812 Y124.348 E37.02868
G0 F6000 X107.378 Y124.348
G1 F1200 X95.649 Y112.62 E37.58035
G0 F6000 X95.649 Y112.054
G1 F1200 X107.944 Y124.348 E38.15865
G0 F6000 X108.509 Y124.348
G1 F1200 X95.649 Y111.488 E38.76355
G0 F6000 X95.649 Y110.923
G1 F1200 X109.075 Y124.348 E39.39504
G0 F6000 X109.641 Y124.348
G1 F1200 X95.649 Y110.357 E40.05316
G0 F6000 X95.649 Y109.791
G1 F1200 X110.206 Y124.348 E40.73787
G0 F6000 X110.772 Y124.348
G1 F1200 X95.649 Y109.226 E41.44919
G0 F6000 X95.649 Y108.66
G1 F1200 X111.338 Y124.348 E42.18713
G0 F6000 X111.903 Y124.348
G1 F1200 X95.649 Y108.094 E42.95167
G0 F6000 X95.649 Y107.529
G1 F1200 X112.35 Y124.229 E43.73721
G0 F6000 X112.35 Y123.663
G1 F1200 X95.649 Y106.963 E44.52275
G0 F6000 X95.649 Y106.397
G1 F1200 X112.35 Y123.098 E45.30831
G0 F6000 X112.35 Y122.532
G1 F1200 X95.649 Y105.831 E46.09388
G0 F6000 X95.649 Y105.266
G1 F1200 X112.35 Y121.966 E46.87942
G0 F6000 X112.35 Y121.401
G1 F1200 X95.649 Y104.7 E47.66498
G0 F6000 X95.649 Y104.134
